src/extras-openmoji/objects/E153.svg

<svg id="emoji" viewBox="0 0 72 72" xmlns="http://www.w3.org/2000/svg">
  <g id="grid">
    <path fill="#B3B3B3" d="M68 4V68H4V4H68ZM72 0H0V72H72V0Z"/>
    <path fill="none" stroke="#00A5FF" stroke-miterlimit="10" stroke-width="0.1" d="M12.923 10.9583H59.0769C59.5869 10.9583 60.0761 11.1609 60.4367 11.5216C60.7974 11.8822 61 12.3714 61 12.8814V59.0352C61 59.5452 60.7974 60.0344 60.4367 60.3951C60.0761 60.7557 59.5869 60.9583 59.0769 60.9583H12.9231C12.4131 60.9583 11.9239 60.7557 11.5633 60.3951C11.2026 60.0344 11 59.5452 11 59.0352V12.8813C11 12.3713 11.2026 11.8822 11.5632 11.5215C11.9239 11.1609 12.413 10.9583 12.923 10.9583V10.9583Z"/>
    <path fill="none" stroke="#00A5FF" stroke-miterlimit="10" stroke-width="0.1" d="M53.7463 4H18.2537C17.009 4 16 5.00902 16 6.2537V65.7463C16 66.991 17.009 68 18.2537 68H53.7463C54.991 68 56 66.991 56 65.7463V6.2537C56 5.00902 54.991 4 53.7463 4Z"/>
    <path fill="none" stroke="#00A5FF" stroke-miterlimit="10" stroke-width="0.1" d="M68 53.7463V18.2537C68 17.009 66.991 16 65.7463 16L6.2537 16C5.00902 16 4 17.009 4 18.2537V53.7463C4 54.991 5.00902 56 6.2537 56L65.7463 56C66.991 56 68 54.991 68 53.7463Z"/>
    <path fill="none" stroke="#00A5FF" stroke-miterlimit="10" stroke-width="0.1" d="M36 65C52.0163 65 65 52.0163 65 36C65 19.9837 52.0163 7 36 7C19.9837 7 7 19.9837 7 36C7 52.0163 19.9837 65 36 65Z"/>
  </g>
  <g id="color">
    <path fill="#d0cfce" fill-rule="evenodd" d="M21.4202 12H13C12.7522 14.726 14.224 18.4346 15.7716 22.3345C17.0514 25.5593 18.3831 28.9149 18.8372 31.9537L16.9513 54.5848C16.7083 57.4999 19.0088 60 21.934 60H49.6777C52.5619 60 54.8479 57.5666 54.668 54.6881L52.3125 17L52.293 16.6881L52.0586 12.9376C52.0257 12.4106 51.5886 12 51.0606 12H47.3027H31.5H25.1007H21.4202Z" clip-rule="evenodd"/>
    <g>
      <path fill="#9B9B9A" fill-rule="evenodd" d="M20.1191 16.571C20.1187 16.5756 20.1183 16.5802 20.1179 16.5848L20.0834 17L16.9513 54.5848C16.7083 57.4999 19.0088 60 21.934 60H49.6777C52.5619 60 54.8479 57.5666 54.668 54.6881L52.3125 17L52.293 16.6881L52.0586 12.9376C52.0257 12.4106 51.5886 12 51.0606 12H47.3027H25.1007H21.4202C20.9001 12 20.4668 12.3987 20.4236 12.917L20.1191 16.571Z" clip-rule="evenodd"/>
      <path fill="#9B9B9A" d="M20.1179 16.5848L19.1214 16.5017L19.1214 16.5018L20.1179 16.5848ZM20.1191 16.571L21.1154 16.6568L21.1156 16.6541L20.1191 16.571ZM20.0834 17L21.0799 17.083L21.0799 17.083L20.0834 17ZM16.9513 54.5848L15.9547 54.5017H15.9547L16.9513 54.5848ZM54.668 54.6881L53.67 54.7505L54.668 54.6881ZM52.3125 17L53.3106 16.9376L53.3106 16.9376L52.3125 17ZM52.293 16.6881L51.295 16.7505L51.295 16.7505L52.293 16.6881ZM52.0586 12.9376L53.0567 12.8752L53.0567 12.8752L52.0586 12.9376ZM20.4236 12.917L21.4202 13V13L20.4236 12.917ZM21.1145 16.6678C21.1148 16.6641 21.1151 16.6605 21.1154 16.6568L19.1228 16.4853C19.1223 16.4908 19.1219 16.4962 19.1214 16.5017L21.1145 16.6678ZM21.0799 17.083L21.1145 16.6678L19.1214 16.5018L19.0868 16.917L21.0799 17.083ZM17.9478 54.6678L21.0799 17.083L19.0868 16.917L15.9547 54.5017L17.9478 54.6678ZM21.934 59C19.5938 59 17.7535 56.9999 17.9478 54.6678L15.9547 54.5017C15.6632 57.9998 18.4238 61 21.934 61V59ZM49.6777 59H21.934V61H49.6777V59ZM53.67 54.7505C53.8139 57.0533 51.985 59 49.6777 59V61C53.1387 61 55.882 58.0799 55.6661 54.6257L53.67 54.7505ZM51.3145 17.0624L53.67 54.7505L55.6661 54.6257L53.3106 16.9376L51.3145 17.0624ZM51.295 16.7505L51.3145 17.0624L53.3106 16.9376L53.2911 16.6257L51.295 16.7505ZM51.0606 13L51.295 16.7505L53.2911 16.6257L53.0567 12.8752L51.0606 13ZM51.0606 13V13L53.0567 12.8752C52.9908 11.8212 52.1167 11 51.0606 11V13ZM47.3027 13H51.0606V11H47.3027V13ZM25.1007 13H47.3027V11H25.1007V13ZM21.4202 13H25.1007V11H21.4202V13ZM21.4202 13L21.4202 13V11C20.38 11 19.5134 11.7973 19.4271 12.8339L21.4202 13ZM21.1156 16.6541L21.4202 13L19.4271 12.8339L19.1226 16.488L21.1156 16.6541Z"/>
    </g>
    <g>
      <path fill="#D0CFCE" fill-rule="evenodd" d="M30.5264 16.2802C30.5263 16.2842 30.5262 16.2882 30.5261 16.2923L30.51 17L29.6469 54.8861C29.583 57.6914 31.8396 60 34.6456 60H34.9691C37.7639 60 40.0161 57.709 39.9684 54.9146L39.3206 17L39.2519 12.9829C39.2426 12.4374 38.7977 12 38.2521 12H34.9173H31.6014C31.058 12 30.614 12.434 30.6016 12.9772L30.5264 16.2802Z" clip-rule="evenodd"/>
      <path fill="#9B9B9A" d="M30.5261 16.2923L29.5264 16.2695L29.5264 16.2695L30.5261 16.2923ZM30.5264 16.2802L31.5261 16.3056L31.5261 16.3029L30.5264 16.2802ZM30.51 17L31.5097 17.0228L31.5097 17.0228L30.51 17ZM29.6469 54.8861L28.6472 54.8633L29.6469 54.8861ZM39.9684 54.9146L38.9685 54.9317L39.9684 54.9146ZM39.3206 17L40.3204 16.9829V16.9829L39.3206 17ZM39.2519 12.9829L40.2518 12.9658V12.9658L39.2519 12.9829ZM30.6016 12.9772L31.6014 13L30.6016 12.9772ZM31.5258 16.315C31.5259 16.3119 31.526 16.3088 31.5261 16.3056L29.5267 16.2547C29.5266 16.2596 29.5265 16.2645 29.5264 16.2695L31.5258 16.315ZM31.5097 17.0228L31.5258 16.315L29.5264 16.2695L29.5103 16.9772L31.5097 17.0228ZM30.6466 54.9089L31.5097 17.0228L29.5103 16.9772L28.6472 54.8633L30.6466 54.9089ZM34.6456 59C32.4008 59 30.5955 57.1531 30.6466 54.9089L28.6472 54.8633C28.5705 58.2297 31.2784 61 34.6456 61V59ZM34.9691 59H34.6456V61H34.9691V59ZM38.9685 54.9317C39.0067 57.1672 37.205 59 34.9691 59V61C38.3229 61 41.0255 58.2508 40.9682 54.8975L38.9685 54.9317ZM38.3207 17.0171L38.9685 54.9317L40.9682 54.8975L40.3204 16.9829L38.3207 17.0171ZM38.2521 13L38.3207 17.0171L40.3204 16.9829L40.2518 12.9658L38.2521 13ZM38.2521 13V13L40.2518 12.9658C40.2332 11.8747 39.3433 11 38.2521 11V13ZM34.9173 13H38.2521V11H34.9173V13ZM31.6014 13H34.9173V11H31.6014V13ZM31.6014 13L31.6014 13V11C30.5146 11 29.6267 11.8679 29.6019 12.9545L31.6014 13ZM31.5261 16.3029L31.6014 13L29.6019 12.9545L29.5267 16.2574L31.5261 16.3029Z"/>
    </g>
  </g>
  <g id="line">
    <path fill="#000" d="M12 12V11C11.4828 11 11.051 11.3944 11.0041 11.9095L12 12ZM14.7716 22.3345L15.7011 21.9656L14.7716 22.3345ZM18 34H17C17 34.5523 17.4477 35 18 35V34ZM18.6674 33.9913L19.664 34.0743C19.6876 33.791 19.5895 33.5111 19.3942 33.3045C19.199 33.0978 18.925 32.9841 18.6409 32.9916L18.6674 33.9913ZM16.9513 54.5848L15.9547 54.5017L16.9513 54.5848ZM54.668 54.6881L53.67 54.7505L54.668 54.6881ZM52.3125 17L53.3106 16.9376L53.3106 16.9375L52.3125 17ZM52.293 16.6881L51.295 16.7505L51.295 16.7506L52.293 16.6881ZM52.0586 12.9376L53.0567 12.8752V12.8752L52.0586 12.9376ZM12 13H21.4202V11H12V13ZM15.7011 21.9656C14.9233 20.0057 14.1856 18.145 13.6698 16.4378C13.1503 14.7187 12.8897 13.2589 12.9959 12.0905L11.0041 11.9095C10.8625 13.4671 11.2139 15.2246 11.7553 17.0163C12.3003 18.8199 13.0723 20.7634 13.8422 22.7033L15.7011 21.9656ZM19 34C19 30.2369 17.2516 25.8727 15.7011 21.9656L13.8422 22.7033C15.4414 26.7333 17 30.702 17 34H19ZM18.6409 32.9916C18.4315 32.9972 18.2179 33 18 33V35C18.2351 35 18.4664 34.997 18.694 34.9909L18.6409 32.9916ZM17.6709 33.9082L15.9547 54.5017L17.9478 54.6678L19.664 34.0743L17.6709 33.9082ZM15.9547 54.5017C15.6632 57.9998 18.4238 61 21.934 61V59C19.5938 59 17.7535 56.9999 17.9478 54.6678L15.9547 54.5017ZM21.934 61H49.6777V59H21.934V61ZM49.6777 61C53.1387 61 55.882 58.0799 55.6661 54.6257L53.67 54.7505C53.8139 57.0533 51.985 59 49.6777 59V61ZM55.6661 54.6257L53.3106 16.9376L51.3145 17.0624L53.67 54.7505L55.6661 54.6257ZM53.3106 16.9375L53.2911 16.6257L51.295 16.7506L51.3145 17.0625L53.3106 16.9375ZM53.2911 16.6257L53.0567 12.8752L51.0606 13L51.295 16.7505L53.2911 16.6257ZM53.0567 12.8752C52.9908 11.8212 52.1167 11 51.0606 11V13V13L53.0567 12.8752ZM51.0606 11H47.3027V13H51.0606V11ZM47.3027 11H30.5V13H47.3027V11ZM30.5 11H25.1007V13H30.5V11ZM25.1007 11H21.4202V13H25.1007V11Z"/>
    <path fill="none" stroke="#000" stroke-linecap="round" stroke-width="2" d="M20.25 15C19.6707 21.9519 19.1836 27.7967 18.7083 33.5"/>
    <path fill="none" stroke="#000" stroke-linecap="round" stroke-linejoin="round" stroke-width="2" d="M54.5 21.5L54.4293 19.5733C54.3877 18.4408 55.2946 17.5 56.428 17.5H64.6887C65.9076 17.5 66.8431 18.581 66.668 19.7873L62.7486 46.7873C62.6059 47.7706 61.7629 48.5 60.7694 48.5H58C56.8954 48.5 56 47.6046 56 46.5V44.9377"/>
  </g>
</svg>

<svg viewBox="0 0 72 72" xmlns="http://www.w3.org/2000/svg"><path fill="#B3B3B3" d="M68 4v64H4V4h64zm4-4H0v72h72V0z"/><path fill="none" stroke="#00A5FF" stroke-miterlimit="10" stroke-width=".1" d="M12.923 10.958h46.154A1.923 1.923 0 0161 12.881v46.154a1.923 1.923 0 01-1.923 1.923H12.923A1.923 1.923 0 0111 59.035V12.881a1.923 1.923 0 011.923-1.923v0z"/><path fill="none" stroke="#00A5FF" stroke-miterlimit="10" stroke-width=".1" d="M53.746 4H18.254A2.254 2.254 0 0016 6.254v59.492A2.254 2.254 0 0018.254 68h35.492A2.254 2.254 0 0056 65.746V6.254A2.254 2.254 0 0053.746 4z"/><path fill="none" stroke="#00A5FF" stroke-miterlimit="10" stroke-width=".1" d="M68 53.746V18.254A2.254 2.254 0 0065.746 16H6.254A2.254 2.254 0 004 18.254v35.492A2.254 2.254 0 006.254 56h59.492A2.254 2.254 0 0068 53.746z"/><path fill="none" stroke="#00A5FF" stroke-miterlimit="10" stroke-width=".1" d="M36 65c16.016 0 29-12.984 29-29S52.016 7 36 7 7 19.984 7 36s12.984 29 29 29z"/><path d="M12 12v-1a1 1 0 00-.996.91L12 12zm2.772 10.334l.93-.368-.93.368zM18 34h-1a1 1 0 001 1v-1zm.667-.009l.997.083a1 1 0 00-1.023-1.082l.026 1zm-1.716 20.594l-.996-.083.996.083zm37.717.103l-.998.063.998-.063zM52.313 17l.998-.062h0l-.998.062zm-.02-.312l-.998.063h0l.998-.063zm-.234-3.75l.998-.063v0l-.998.063zM12 13h9.42v-2H12v2zm3.701 8.966c-.778-1.96-1.515-3.821-2.031-5.528-.52-1.72-.78-3.18-.674-4.347l-1.992-.181c-.141 1.557.21 3.315.751 5.106.545 1.804 1.317 3.747 2.087 5.687l1.86-.737zM19 34c0-3.763-1.748-8.127-3.299-12.034l-1.859.737C15.442 26.733 17 30.702 17 34h2zm-.36-1.008A26.71 26.71 0 0118 33v2c.235 0 .466-.003.694-.01l-.053-1.998zm-.97.916l-1.715 20.594 1.993.166 1.716-20.594-1.993-.166zm-1.715 20.594A6 6 0 0021.934 61v-2a4 4 0 01-3.986-4.332l-1.993-.166zM21.934 61h27.744v-2H21.934v2zm27.744 0a6 6 0 005.988-6.374l-1.996.125A4 4 0 0149.678 59v2zm5.988-6.374l-2.355-37.688-1.996.124 2.355 37.689 1.996-.125zm-2.355-37.688l-.02-.312-1.996.125.02.311 1.996-.125zm-.02-.312l-.234-3.75L51.06 13l.234 3.75 1.996-.124zm-.234-3.75A2 2 0 0051.06 11v2l1.996-.125zM51.06 11h-3.758v2h3.758v-2zm-3.758 0H30.5v2h16.803v-2zM30.5 11h-5.4v2h5.4v-2zm-5.4 0h-3.68v2h3.68v-2zm-4.85 4l-1.542 18.5m35.792-12l-.07-1.927a2 2 0 011.998-2.073h8.26a2 2 0 011.98 2.287l-3.92 27A2 2 0 0160.77 48.5H58a2 2 0 01-2-2v-1.562" stroke-linecap="round" stroke-miterlimit="10" stroke-width="6" stroke="#fff" fill="none" stroke-linejoin="round"/><path fill="#d0cfce" fill-rule="evenodd" d="M21.42 12H13c-.248 2.726 1.224 6.435 2.772 10.334 1.28 3.225 2.611 6.58 3.065 9.62l-1.886 22.63A5 5 0 0021.934 60h27.744a5 5 0 004.99-5.312L52.313 17l-.02-.312-.234-3.75A1 1 0 0051.06 12H21.42z" clip-rule="evenodd"/><g fill="#9B9B9A"><path fill-rule="evenodd" d="M20.12 16.571l-.002.014-.035.415-3.132 37.585A5 5 0 0021.934 60h27.744a5 5 0 004.99-5.312L52.313 17l-.02-.312-.234-3.75A1 1 0 0051.06 12H21.42a1 1 0 00-.997.917l-.305 3.654z" clip-rule="evenodd"/><path d="M20.118 16.585l-.997-.083.997.083zm.001-.014l.996.086v-.003l-.996-.083zm-.036.429l.997.083-.997-.083zm-3.132 37.585l-.996-.083.996.083zm37.717.103l-.998.063.998-.063zM52.313 17l.998-.062-.998.062zm-.02-.312l-.998.063.998-.063zm-.234-3.75l.998-.063-.998.063zm-31.635-.021l.996.083-.996-.083zm.69 3.75l.001-.01-1.992-.172-.002.017 1.994.166zm-.034.416l.035-.415-1.994-.166-.034.415 1.993.166zm-3.132 37.585l3.132-37.585-1.993-.166-3.132 37.585 1.993.166zM21.934 59a4 4 0 01-3.986-4.332l-1.993-.166A6 6 0 0021.934 61v-2zm27.744 0H21.934v2h27.744v-2zm3.992-4.25A4 4 0 0149.678 59v2a6 6 0 005.988-6.374l-1.996.125zm-2.355-37.688l2.355 37.689 1.996-.125-2.355-37.688-1.996.124zm-.02-.312l.02.312 1.996-.124-.02-.312-1.996.124zM51.061 13l.234 3.75 1.996-.124-.234-3.75L51.06 13zm0 0l1.996-.125A2 2 0 0051.06 11v2zm-3.758 0h3.758v-2h-3.758v2zM25.1 13h22.202v-2H25.1v2zm-3.68 0h3.68v-2h-3.68v2zm0 0v-2a2 2 0 00-1.994 1.834L21.42 13zm-.305 3.654L21.42 13l-1.993-.166-.304 3.654 1.993.166z"/></g><path fill="#D0CFCE" fill-rule="evenodd" d="M30.526 16.28v.012L30.51 17l-.863 37.886A5 5 0 0034.646 60h.323a5 5 0 005-5.085L39.32 17l-.07-4.017a1 1 0 00-.999-.983H31.6a1 1 0 00-1 .977l-.075 3.303z" clip-rule="evenodd"/><path fill="#9B9B9A" d="M30.526 16.292l-1-.023 1 .023zm0-.012l1 .026v-.003l-1-.023zm-.016.72l1 .023-1-.023zm-.863 37.886l-1-.023 1 .023zm10.321.029l-1 .017 1-.017zM39.321 17l1-.017-1 .017zm-.07-4.017l1-.017-1 .017zm-8.65-.006l1 .023-1-.023zm.925 3.338v-.01l-2-.05v.015l2 .045zm-.016.708l.016-.708-2-.046-.016.708 2 .046zm-.863 37.886l.863-37.886-2-.046-.863 37.886 2 .046zM34.646 59a4 4 0 01-4-4.091l-1.999-.046A6 6 0 0034.646 61v-2zm.323 0h-.323v2h.323v-2zm4-4.068a4 4 0 01-4 4.068v2a6 6 0 006-6.102l-2 .034zm-.648-37.915l.648 37.915 2-.035-.649-37.914-2 .034zM38.252 13l.069 4.017 2-.034-.07-4.017-1.999.034zm0 0l2-.034a2 2 0 00-2-1.966v2zm-3.335 0h3.335v-2h-3.335v2zm-3.316 0h3.316v-2h-3.316v2zm0 0v-2a2 2 0 00-2 1.954l2 .046zm-.075 3.303L31.601 13l-2-.046-.074 3.303 2 .046z"/><g><path d="M12 12v-1a1 1 0 00-.996.91L12 12zm2.772 10.334l.93-.368-.93.368zM18 34h-1a1 1 0 001 1v-1zm.667-.009l.997.083a1 1 0 00-1.023-1.082l.026 1zm-1.716 20.594l-.996-.083.996.083zm37.717.103l-.998.063.998-.063zM52.313 17l.998-.062-.998.062zm-.02-.312l-.998.063.998-.063zm-.234-3.75l.998-.063-.998.063zM12 13h9.42v-2H12v2zm3.701 8.966c-.778-1.96-1.515-3.821-2.031-5.528-.52-1.72-.78-3.18-.674-4.347l-1.992-.181c-.141 1.557.21 3.315.751 5.106.545 1.804 1.317 3.747 2.087 5.687l1.86-.737zM19 34c0-3.763-1.748-8.127-3.299-12.034l-1.859.737C15.442 26.733 17 30.702 17 34h2zm-.36-1.008A26.71 26.71 0 0118 33v2c.235 0 .466-.003.694-.01l-.053-1.998zm-.97.916l-1.715 20.594 1.993.166 1.716-20.594-1.993-.166zm-1.715 20.594A6 6 0 0021.934 61v-2a4 4 0 01-3.986-4.332l-1.993-.166zM21.934 61h27.744v-2H21.934v2zm27.744 0a6 6 0 005.988-6.374l-1.996.125A4 4 0 0149.678 59v2zm5.988-6.374l-2.355-37.688-1.996.124 2.355 37.689 1.996-.125zm-2.355-37.688l-.02-.312-1.996.125.02.311 1.996-.125zm-.02-.312l-.234-3.75L51.06 13l.234 3.75 1.996-.124zm-.234-3.75A2 2 0 0051.06 11v2l1.996-.125zM51.06 11h-3.758v2h3.758v-2zm-3.758 0H30.5v2h16.803v-2zM30.5 11h-5.4v2h5.4v-2zm-5.4 0h-3.68v2h3.68v-2z"/><path fill="none" stroke="#000" stroke-linecap="round" stroke-width="2" d="M20.25 15l-1.542 18.5"/><path fill="none" stroke="#000" stroke-linecap="round" stroke-linejoin="round" stroke-width="2" d="M54.5 21.5l-.07-1.927a2 2 0 011.998-2.073h8.26a2 2 0 011.98 2.287l-3.92 27A2 2 0 0160.77 48.5H58a2 2 0 01-2-2v-1.562"/></g></svg>
